X:511
T: Jiezhenguo zhenyingyong
N: C1930
O: China, Hebei Tangshan
S: III, 54]
R: Xiaodiao]
M: 2/4
L: 1/16
K: F
A2f2d4 | G2A2c4 | A2c2d2f2 | c2A2G4 |
A2D2F2F2 | D2A2G4 | A2D2A2c2 | E2D2C4 |
A2D2A2c2 | E2D2C4

